X:1
T:Title
L:1/8
M:4/4
K:Eb
V:1 treble nm="Grand Piano"
V:1
 z4[Q:1/4=100] z C2 C | G2 G2- G F2 G | A2 A2- A F2 E | D2 D2- D E2 F | G4 z C2 C | G2 G2- G F2 G | %6
 A2 A2- A F2 E | D2 D2- D E2 F | G4 z G2 F | E2 D2- D C2 =B, |[M:2/4] C4 | z C2 D | %12
[M:4/4] E2 G2- G A2 F | E2 D2- D A2 F | E2 D2- DC=B,C | D4- D =B,2 C | D2 F2- F G2 E | %17
 D2 C2- C =B,2 C | D2 F2- F A2 F | G4- G G2 G | =B2 c2- c d2 e | d2 c2- c c2 d | c2 B2- B A2 G | %23
 F4- F G2 A | G2 F2- F E2 F | E2 D2- D E2 F | G2 G2- G E2 D | C4 z4 |] %28

